static/images/leaderboard/crown.svg

<svg width="100" height="100" viewBox="0 0 100 100" fill="none" xmlns="http://www.w3.org/2000/svg">
<path d="M92.7626 30.9959C91.8688 30.2498 90.7832 29.7699 89.6298 29.611C88.4763 29.4522 87.3014 29.6207 86.2392 30.0975L66.4736 38.8866L54.9892 18.1834C54.4403 17.2169 53.645 16.413 52.6843 15.8538C51.7237 15.2946 50.632 15 49.5204 15C48.4089 15 47.3172 15.2946 46.3565 15.8538C45.3959 16.413 44.6006 17.2169 44.0517 18.1834L32.5673 38.8866L12.8017 30.0975C11.7373 29.6214 10.5609 29.4526 9.40554 29.6102C8.2502 29.7677 7.16197 30.2453 6.26387 30.989C5.36577 31.7327 4.69362 32.7128 4.3234 33.8185C3.95318 34.9242 3.89965 36.1114 4.16888 37.2459L14.0907 79.5506C14.2805 80.3696 14.6345 81.1416 15.1314 81.8198C15.6282 82.4979 16.2576 83.0682 16.9814 83.4959C17.9612 84.0825 19.0816 84.3929 20.2236 84.3944C20.7787 84.3933 21.331 84.3144 21.8642 84.16C39.9494 79.1599 59.0524 79.1599 77.1376 84.16C78.7889 84.5941 80.545 84.3553 82.0204 83.4959C82.7486 83.0736 83.3814 82.505 83.8789 81.826C84.3764 81.147 84.7279 80.3722 84.9111 79.5506L94.872 37.2459C95.1382 36.1111 95.0817 34.9244 94.709 33.82C94.3362 32.7156 93.6621 31.7374 92.7626 30.9959Z" fill="url(#paint0_linear_629_12672)"/>
<path fill-rule="evenodd" clip-rule="evenodd" d="M92.1265 31.7676L92.1218 31.7636C91.3719 31.1376 90.4611 30.735 89.4933 30.6017C88.5256 30.4684 87.5399 30.6098 86.6487 31.0098L86.6455 31.0112L66.0432 40.1723L54.1196 18.6773C54.1188 18.6759 54.1181 18.6745 54.1173 18.6732C53.6558 17.8621 52.9878 17.1876 52.1813 16.7181C51.3734 16.2478 50.4552 16 49.5204 16C48.5856 16 47.6675 16.2478 46.8596 16.7181C46.053 17.1876 45.3851 17.8621 44.9236 18.6732C44.9228 18.6745 44.922 18.6759 44.9212 18.6773L32.9976 40.1723L12.3934 31.0104C11.4993 30.6105 10.5111 30.4687 9.54061 30.601C8.57017 30.7334 7.65605 31.1346 6.90165 31.7592C6.14724 32.3839 5.58264 33.2072 5.27165 34.136C4.96067 35.0648 4.91571 36.062 5.14186 37.015L5.14246 37.0176L15.0649 79.3249C15.2241 80.0121 15.5211 80.6598 15.938 81.2288C16.3549 81.7977 16.8829 82.2762 17.4902 82.635L17.495 82.6379C18.3195 83.1315 19.2621 83.3928 20.223 83.3944C20.6842 83.3934 21.143 83.3278 21.586 83.1995L21.5977 83.1961C39.8551 78.1483 59.1399 78.1478 77.3976 83.1944C78.791 83.5591 80.2723 83.3569 81.5171 82.6318L81.5188 82.6309C82.1274 82.2779 82.6564 81.8026 83.0723 81.235C83.4881 80.6674 83.7819 80.0198 83.935 79.333L83.9376 79.3214L93.8984 37.0176M77.1376 84.16C59.0524 79.1599 39.9494 79.1599 21.8642 84.16C21.3309 84.3144 20.7787 84.3933 20.2236 84.3944C19.0816 84.3929 17.9612 84.0825 16.9814 83.4959C16.2576 83.0682 15.6282 82.498 15.1314 81.8198C14.6345 81.1416 14.2805 80.3696 14.0907 79.5506L4.16888 37.2459C3.89965 36.1114 3.95318 34.9242 4.3234 33.8185C4.69362 32.7128 5.36577 31.7327 6.26387 30.989C7.16197 30.2453 8.2502 29.7677 9.40554 29.6102C10.5609 29.4526 11.7373 29.6214 12.8017 30.0975L32.5673 38.8866L44.0517 18.1834C44.6006 17.2169 45.3959 16.413 46.3565 15.8538C47.3172 15.2946 48.4089 15 49.5204 15C50.632 15 51.7237 15.2946 52.6843 15.8538C53.645 16.413 54.4403 17.2169 54.9892 18.1834L66.4736 38.8866L86.2392 30.0975C87.3014 29.6207 88.4763 29.4522 89.6298 29.611C90.7832 29.7699 91.8688 30.2498 92.7626 30.9959C93.6621 31.7374 94.3362 32.7156 94.709 33.82C95.0817 34.9244 95.1382 36.1111 94.872 37.2459L84.9111 79.5506C84.7279 80.3722 84.3764 81.147 83.8789 81.826C83.3814 82.505 82.7486 83.0736 82.0204 83.4959C80.545 84.3553 78.7889 84.5941 77.1376 84.16ZM93.8984 37.0176C94.1218 36.0645 94.0745 35.0672 93.7615 34.1398C93.4484 33.212 92.8821 32.3904 92.1265 31.7676" fill="url(#paint1_linear_629_12672)"/>
<defs>
<linearGradient id="paint0_linear_629_12672" x1="49.5186" y1="15" x2="49.5186" y2="84.3944" gradientUnits="userSpaceOnUse">
<stop stop-color="#44F28A" stop-opacity="0.5"/>
<stop offset="1" stop-color="#161616" stop-opacity="0"/>
</linearGradient>
<linearGradient id="paint1_linear_629_12672" x1="49.5186" y1="15" x2="49.5205" y2="76.2851" gradientUnits="userSpaceOnUse">
<stop stop-color="#44F28A" stop-opacity="0.6"/>
<stop offset="1" stop-color="#44F28A" stop-opacity="0"/>
</linearGradient>
</defs>
</svg>

<svg xmlns="http://www.w3.org/2000/svg" width="100" height="100" fill="none" xmlns:v="https://vecta.io/nano"><path d="M92.763 30.996a6.21 6.21 0 0 0-6.523-.898l-19.766 8.789-11.484-20.703A6.29 6.29 0 0 0 49.52 15a6.29 6.29 0 0 0-5.469 3.183L32.567 38.887l-19.766-8.789a6.25 6.25 0 0 0-6.538.892 6.25 6.25 0 0 0-2.095 6.257l9.922 42.305c.19.819.544 1.591 1.041 2.269a6.21 6.21 0 0 0 1.85 1.676 6.33 6.33 0 0 0 3.242.898 5.94 5.94 0 0 0 1.641-.234 103.71 103.71 0 0 1 55.273 0c1.651.434 3.407.195 4.883-.664.728-.422 1.361-.991 1.859-1.67s.849-1.454 1.032-2.275l9.961-42.305a6.25 6.25 0 0 0-2.109-6.25z" fill="url(#A)"/><path fill-rule="evenodd" d="M92.127 31.768l-.005-.004a5.21 5.21 0 0 0-5.473-.754l-.003.001-20.602 9.161L54.12 18.677c-.464-.815-1.132-1.49-1.938-1.959a5.29 5.29 0 0 0-5.322 0 5.29 5.29 0 0 0-1.936 1.955L32.998 40.172 12.393 31.01a5.25 5.25 0 0 0-5.492.749 5.25 5.25 0 0 0-1.76 5.256v.003l9.922 42.307a5.21 5.21 0 0 0 2.425 3.31l.005.003a5.33 5.33 0 0 0 2.728.757 4.94 4.94 0 0 0 1.363-.195l.012-.003a104.71 104.71 0 0 1 55.8-.002c1.393.365 2.875.162 4.12-.563l.002-.001c.609-.353 1.138-.828 1.553-1.396s.71-1.215.863-1.902l.003-.012 9.961-42.304M77.138 84.16a103.71 103.71 0 0 0-55.273 0 5.94 5.94 0 0 1-1.641.234 6.33 6.33 0 0 1-3.242-.898 6.21 6.21 0 0 1-1.85-1.676c-.497-.678-.851-1.45-1.041-2.269L4.169 37.246a6.25 6.25 0 0 1 2.095-6.257 6.25 6.25 0 0 1 6.538-.892l19.766 8.789 11.484-20.703A6.29 6.29 0 0 1 49.52 15a6.29 6.29 0 0 1 5.469 3.183l11.484 20.703 19.766-8.789a6.21 6.21 0 0 1 6.523.898 6.25 6.25 0 0 1 2.109 6.25l-9.961 42.305c-.183.822-.535 1.596-1.032 2.275s-1.13 1.248-1.859 1.67c-1.475.859-3.231 1.098-4.883.664zm16.761-47.142c.223-.953.176-1.95-.137-2.878a5.25 5.25 0 0 0-1.635-2.372" fill="url(#B)"/><defs><linearGradient id="A" x1="49.519" y1="15" x2="49.519" y2="84.394" gradientUnits="userSpaceOnUse"><stop stop-color="#44f28a" stop-opacity=".5"/><stop offset="1" stop-color="#161616" stop-opacity="0"/></linearGradient><linearGradient id="B" x1="49.519" y1="15" x2="49.521" y2="76.285" gradientUnits="userSpaceOnUse"><stop stop-color="#44f28a" stop-opacity=".6"/><stop offset="1" stop-color="#44f28a" stop-opacity="0"/></linearGradient></defs></svg>
